usr/share/icons/biglinux-icons-material-dark/symbolic/actions/code-variable.svg

<svg xmlns="http://www.w3.org/2000/svg" viewBox="0 0 16 16">
<defs id="defs3051">
<style id="current-color-scheme" type="text/css">
.ColorScheme-Contrast{color:#dedede}
</style>
</defs>
<path d="M2 2v6h12V2zm1 1h10v4H3zM2 9v3h2V9zm4 0v5h2V9zm4 0v2h4V9z" class="ColorScheme-Contrast" style="fill:currentColor;fill-opacity:1;stroke:none"/>
</svg>

<svg xmlns="http://www.w3.org/2000/svg" viewBox="0 0 16 16">
  <defs id="defs3051">
    <style type="text/css" id="current-color-scheme">
      .ColorScheme-Text {
        color:#dedede;
      }
      </style>
  </defs>
 <path style="fill:currentColor;fill-opacity:1;stroke:none" 
     d="M 2 2 L 2 8 L 14 8 L 14 2 L 2 2 z M 3 3 L 13 3 L 13 7 L 3 7 L 3 3 z M 2 9 L 2 12 L 4 12 L 4 9 L 2 9 z M 6 9 L 6 14 L 8 14 L 8 9 L 6 9 z M 10 9 L 10 11 L 14 11 L 14 9 L 10 9 z "
     class="ColorScheme-Text"
     />
</svg>
